X:529
T:
N:
S:Efter Ol. Sedergren i Burs.
R:vals
O:Gotland, Burs
M:3/4
L:1/8
K:D
A2|d2 (dc) (de)|(fe) (de) (fe)|(de)(dc)(df)|a3 f a2|
g2 (eg)(eg)|f2 (df)(df)|e2 (cA)(ce)|(de)(fg) a2|
g2 (eg)(ef)|f2 (df)(df)|e2 (cA)(ce)|d4::f2|
g2 (bg)(bg)|(gf)(af)(af)|(fe)(ge)(ce)|(dc)(df) a2|
g2 (bg)(bg)|(gf)(af)(af)|(fe)(ge)(ce)|d4:|

